X: 10521
T: KEMP'S HORNPIPE
C: Arranged by W. B. Laybourn
R: hornpipe
B: K\"ohler's Violin Repository, v.1, 1885 p.52 #1
F: http://www.archive.org/details/klersviolinrepos01edin
Z: 2011 John Chambers <jc:trillian.mit.edu>
M: C|
L: 1/8
K: A
ue>vd |\
c>Ac>e a>gf>e | f>ed>c B2(e>d) | c>Ac>e a>g(f>e) | (3ded (3cdc B2 e>d |
c>Ac>e a>gf>e | f>ed>c B2(e>d) | c>BA>G A>fe>d | c2A2 A2 :|
|: uevd |\
(c/B/A) (a>A) (g>A) (f>A) | e>(ac')>a e2e>d | (c/B/A) (a>G) (g>A) (f>A) | e>(dc)>A [B2G2]e>d |
(c/B/A) (a>A) (g>A) (f>A) | e>(ac')>a e2e>d | c>(fe)>(d c)>(ef)>g | a2A2 A2 :|

%%sep 2 1 500

